icons/1_Primary/Uphold.svg

<svg width="1024" height="1024" viewBox="0 0 1024 1024" fill="none" xmlns="http://www.w3.org/2000/svg">
<g clip-path="url(#clip0_2_3804)">
<path d="M512 1024C794.77 1024 1024 794.77 1024 512C1024 229.23 794.77 0 512 0C229.23 0 0 229.23 0 512C0 794.77 229.23 1024 512 1024Z" fill="#98DC9A"/>
<path d="M559.72 734.61C561.889 733.972 564.163 733.774 566.41 734.028C568.656 734.283 570.829 734.984 572.8 736.091C574.771 737.198 576.5 738.689 577.886 740.475C579.272 742.261 580.287 744.306 580.87 746.49C582.18 750.914 581.712 755.674 579.563 759.758C577.415 763.841 573.758 766.924 569.37 768.35C551.208 773.992 532.308 776.907 513.29 777H511C491.859 776.909 472.838 773.957 454.57 768.24C445.57 765.48 440.42 755.68 443.1 746.37C443.694 744.191 444.716 742.152 446.106 740.372C447.497 738.592 449.228 737.107 451.199 736.004C453.17 734.9 455.341 734.201 457.585 733.946C459.829 733.691 462.102 733.887 464.27 734.52C479.396 739.268 495.147 741.728 511 741.82H513.25C529.011 741.727 544.672 739.298 559.72 734.61ZM684.38 376.53L684.32 376.37C684.318 376.323 684.318 376.277 684.32 376.23C684.32 376.13 684.24 376.04 684.21 375.94C660 298.79 590.85 247 512 247C432.93 247 363.65 299.06 339.6 376.53C323.44 425.16 329.21 490.42 355.08 551.21C390.38 634.21 454.44 691.78 511.17 691.78H512.79C569.52 691.78 633.58 634.15 668.88 551.21C694.77 490.43 700.54 425.16 684.38 376.53ZM512 276.32C544.106 276.311 575.363 286.633 601.15 305.76C572.48 304.53 541.22 317.2 512.02 342.46C482.82 317.19 451.55 304.46 422.87 305.74C448.653 286.622 479.903 276.307 512 276.32ZM422.34 608C405.389 587.207 391.492 564.1 381.07 539.38C358 485.1 352.52 427.67 366.53 385.82C373.93 363.72 386.35 347.97 402.45 340.28C427.6 328.28 460.12 336.79 491.35 362.86C471.35 385.21 454.19 412.63 441.23 443.11C416.39 501.44 410.87 561.52 422.34 608ZM535.43 657.1C528.123 660.627 520.114 662.459 512 662.459C503.886 662.459 495.877 660.627 488.57 657.1C440.17 634 430.39 541.41 467.19 454.91C478.86 427.47 494.19 402.85 511.96 382.91C529.73 402.85 545.11 427.44 556.8 454.91C593.62 541.41 583.83 634 535.43 657.1ZM642.93 539.41C632.508 564.119 618.615 587.215 601.67 608C613.13 561.49 607.61 501.42 582.79 443.09C569.79 412.6 552.62 385.19 532.66 362.84C563.89 336.76 596.42 328.25 621.56 340.26C637.67 347.95 650.09 363.69 657.48 385.8C671.48 427.67 666 485.09 642.93 539.41Z" fill="white"/>
</g>
<defs>
<clipPath id="clip0_2_3804">
<rect width="1024" height="1024" fill="white"/>
</clipPath>
</defs>
</svg>

<svg xmlns="http://www.w3.org/2000/svg" width="1024" height="1024" fill="none">
   <g clip-path="url(#a)">
      <path fill="#98DC9A" d="M512 1024c282.77 0 512-229.23 512-512S794.77 0 512 0 0 229.23 0 512s229.23 512 512 512Z"/>
      <path fill="#fff" d="M559.72 734.61a16.955 16.955 0 0 1 6.69-.582 16.937 16.937 0 0 1 14.46 12.462 17.699 17.699 0 0 1-11.5 21.86 192.207 192.207 0 0 1-56.08 8.65H511a191.998 191.998 0 0 1-56.43-8.76c-9-2.76-14.15-12.56-11.47-21.87a17 17 0 0 1 21.17-11.85 159.117 159.117 0 0 0 46.73 7.3h2.25a159.399 159.399 0 0 0 46.47-7.21Zm124.66-358.08-.06-.16a1.634 1.634 0 0 1 0-.14c0-.1-.08-.19-.11-.29C660 298.79 590.85 247 512 247c-79.07 0-148.35 52.06-172.4 129.53-16.16 48.63-10.39 113.89 15.48 174.68 35.3 83 99.36 140.57 156.09 140.57h1.62c56.73 0 120.79-57.63 156.09-140.57 25.89-60.78 31.66-126.05 15.5-174.68ZM512 276.32a149.575 149.575 0 0 1 89.15 29.44c-28.67-1.23-59.93 11.44-89.13 36.7-29.2-25.27-60.47-38-89.15-36.72A149.541 149.541 0 0 1 512 276.32ZM422.34 608a281.952 281.952 0 0 1-41.27-68.62C358 485.1 352.52 427.67 366.53 385.82c7.4-22.1 19.82-37.85 35.92-45.54 25.15-12 57.67-3.49 88.9 22.58-20 22.35-37.16 49.77-50.12 80.25-24.84 58.33-30.36 118.41-18.89 164.89Zm113.09 49.1a53.9 53.9 0 0 1-46.86 0c-48.4-23.1-58.18-115.69-21.38-202.19 11.67-27.44 27-52.06 44.77-72 17.77 19.94 33.15 44.53 44.84 72 36.82 86.5 27.03 179.09-21.37 202.19Zm107.5-117.69A281.98 281.98 0 0 1 601.67 608c11.46-46.51 5.94-106.58-18.88-164.91-13-30.49-30.17-57.9-50.13-80.25 31.23-26.08 63.76-34.59 88.9-22.58 16.11 7.69 28.53 23.43 35.92 45.54 14 41.87 8.52 99.29-14.55 153.61Z"/>
   </g>
   <defs>
      <clipPath id="a">
         <path fill="#fff" d="M0 0h1024v1024H0z"/>
      </clipPath>
   </defs>
</svg>
